packages/icons/web/hipercard_large.svg

<svg width="24" height="24" viewBox="0 0 24 24" fill="none" xmlns="http://www.w3.org/2000/svg">
<path d="M7.49041 7H5.41758C4.50171 7.04974 3.75306 7.47347 3.53689 8.34727C3.42417 8.80298 3.36214 9.30347 3.274 9.77586C2.82592 12.1779 2.42861 14.646 2 17H18.1375C19.3851 17 20.2417 16.6972 20.4732 15.5598C20.5807 15.0315 20.6838 14.433 20.7867 13.8525C21.1877 11.5892 21.5892 9.32597 22 7H7.49041Z" fill="#B82126"/>
<path d="M15.4334 13.0827C15.2106 13.3139 14.5852 13.3796 14.6492 12.827C14.7023 12.368 15.1738 12.2705 15.6847 12.3368C15.6468 12.5878 15.6032 12.9066 15.4334 13.0827ZM14.7296 11.2925C14.7083 11.4191 14.6757 11.5337 14.6492 11.6548C14.9043 11.587 15.6987 11.3791 15.7753 11.74C15.8007 11.8599 15.7569 11.9873 15.725 12.081C15.0066 12.0089 14.4211 12.1354 14.2671 12.6778C14.164 13.0411 14.2787 13.3986 14.4984 13.4984C14.9215 13.6905 15.4362 13.4704 15.6144 13.168C15.5959 13.2727 15.5784 13.3784 15.5842 13.509H15.9562C15.9602 13.1314 16.012 12.8257 16.0668 12.486C16.1136 12.1966 16.2014 11.9101 16.1875 11.6548C16.1555 11.0699 15.2413 11.2768 14.7296 11.2925ZM18.4597 13.2639C18.1687 13.2705 18.024 13.0796 18.0173 12.7631C18.0057 12.2087 18.2352 11.5928 18.701 11.5375C18.9179 11.5118 19.075 11.5653 19.2339 11.6228C19.088 12.2455 19.1407 13.2484 18.4597 13.2639ZM19.4249 10.3334C19.3879 10.6777 19.3383 11.0089 19.2742 11.3244C18.2137 10.9686 17.5633 11.7956 17.5749 12.8163C17.5772 13.0137 17.6093 13.2095 17.7258 13.3491C17.9265 13.5898 18.5013 13.6473 18.7915 13.4451C18.8477 13.4059 18.9051 13.3347 18.9424 13.2852C18.9703 13.248 19.0147 13.1506 19.0227 13.1786C19.0075 13.2868 18.9847 13.387 18.9826 13.509H19.3747C19.4502 12.36 19.6839 11.3787 19.8573 10.3334H19.4249ZM8.35524 13.0934C8.12394 13.3531 7.55529 13.3491 7.51071 12.9122C7.49127 12.7221 7.55811 12.5228 7.59113 12.3262C7.62455 12.1271 7.6486 11.9361 7.68159 11.7613C7.90942 11.4665 8.5789 11.4309 8.64683 11.9212C8.70578 12.3469 8.54681 12.8784 8.35524 13.0934ZM8.69711 11.2925C8.3312 11.1468 7.88521 11.3207 7.69189 11.4861C7.69256 11.4934 7.68729 11.4944 7.68159 11.4949C7.6849 11.492 7.68846 11.489 7.69189 11.4861C7.69185 11.4855 7.69181 11.4849 7.69166 11.4843C7.69494 11.4131 7.71856 11.3636 7.72184 11.2925H7.34983C7.19481 12.3856 7.01097 13.4482 6.81695 14.5H7.24927C7.31185 14.0904 7.35319 13.6582 7.44032 13.2746C7.53905 13.6781 8.18375 13.601 8.45577 13.4451C9.01711 13.1234 9.45006 11.5922 8.69711 11.2925ZM10.7481 12.0597H9.7327C9.76483 11.8123 9.97486 11.5403 10.3058 11.5269C10.6172 11.5143 10.8402 11.6481 10.7481 12.0597ZM10.3359 11.2498C10.0235 11.2753 9.75948 11.3706 9.57182 11.5802C9.34164 11.8372 9.15523 12.4054 9.20985 12.9229C9.28777 13.6612 10.155 13.6347 10.8487 13.4557C10.8605 13.3262 10.8901 13.2154 10.909 13.0934C10.6233 13.2067 10.1271 13.3649 9.83322 13.168C9.61133 13.0193 9.61004 12.6427 9.68242 12.3155C10.1486 12.2998 10.6332 12.3028 11.1 12.3155C11.1297 12.0835 11.2144 11.8306 11.1403 11.6015C11.0424 11.299 10.6923 11.2208 10.3359 11.2498ZM6.53544 11.2925C6.52373 11.2942 6.52451 11.3093 6.52537 11.3244C6.43011 12.0795 6.3012 12.799 6.16344 13.509H6.59575C6.69964 12.7488 6.81863 12.0047 6.96776 11.2925H6.53544ZM17.8163 11.3031C17.4342 11.1006 17.1161 11.4404 16.9919 11.6441C17.0272 11.5396 17.0293 11.3996 17.0622 11.2925H16.6801C16.5771 12.0536 16.4529 12.7922 16.3081 13.509H16.7505C16.7533 13.2152 16.8077 12.9979 16.851 12.7098C16.9435 12.0946 17.0792 11.4199 17.756 11.6228C17.7784 11.5188 17.7877 11.4007 17.8163 11.3031ZM12.9601 12.9868C12.9202 12.8777 12.9099 12.6975 12.9198 12.5606C12.9422 12.2526 13.0481 11.8777 13.2114 11.7081C13.4369 11.4738 13.882 11.5126 14.2369 11.6441C14.248 11.5173 14.272 11.4042 14.2872 11.2818C13.705 11.181 13.1525 11.2437 12.8595 11.5695C12.5728 11.8885 12.3848 12.6215 12.5177 13.0827C12.6732 13.6225 13.3706 13.6518 13.9354 13.4451C13.9603 13.3366 13.9735 13.2156 13.9957 13.104C13.6871 13.274 13.0972 13.3623 12.9601 12.9868ZM12.7188 11.2925C12.3354 11.1284 12.0341 11.4057 11.8944 11.6654C11.926 11.5499 11.9391 11.4145 11.9647 11.2925H11.5826C11.4893 12.0602 11.3516 12.781 11.2207 13.509H11.6531C11.7137 13.0769 11.7398 12.4944 11.8742 12.081C11.9817 11.7507 12.2628 11.4693 12.6685 11.6228C12.6742 11.501 12.7071 11.4079 12.7188 11.2925ZM5.75122 10.3973C5.68946 10.822 5.61989 11.2385 5.55013 11.6548C5.10224 11.6598 4.64493 11.6782 4.21293 11.6441C4.29452 11.2369 4.35304 10.8052 4.43408 10.3973H3.95152C3.77874 11.4362 3.6216 12.4915 3.42871 13.509H3.92134C3.99864 12.987 4.0709 12.4598 4.17268 11.9638C4.59274 11.9528 5.09619 11.9337 5.49985 11.9745C5.41662 12.4901 5.31605 12.9874 5.23844 13.509H5.73112C5.88938 12.4548 6.0562 11.4097 6.25393 10.3973H5.75122ZM6.97783 10.8662C7.06403 10.8033 7.17502 10.5166 7.04822 10.3973C7.00805 10.3595 6.94082 10.3486 6.84713 10.3654C6.76019 10.3809 6.71018 10.4122 6.67621 10.4612C6.62156 10.5401 6.57151 10.7779 6.65607 10.8662C6.73844 10.9522 6.92298 10.9062 6.97783 10.8662Z" fill="white"/>
</svg>

<svg width="24" height="24" fill="none" xmlns="http://www.w3.org/2000/svg">
    <path d="M7.49 7H5.418c-.916.05-1.665.473-1.881 1.347-.113.456-.175.956-.263 1.429C2.826 12.178 2.429 14.646 2 17h16.137c1.248 0 2.105-.303 2.336-1.44.108-.529.21-1.127.314-1.708L22 7H7.49z" fill="#B82126"/>
    <path d="M15.433 13.083c-.222.23-.848.297-.784-.256.053-.459.525-.556 1.036-.49-.038.25-.082.57-.252.746zm-.703-1.79c-.022.126-.054.24-.08.362.254-.068 1.049-.276 1.125.085.026.12-.018.247-.05.341-.718-.072-1.304.054-1.458.597-.103.363.012.72.231.82.424.193.938-.028 1.116-.33-.018.105-.036.21-.03.341h.372c.004-.378.056-.683.11-1.023.048-.29.135-.576.122-.831-.032-.585-.947-.378-1.458-.362zm3.73 1.97c-.291.008-.436-.183-.443-.5-.011-.554.218-1.17.684-1.226.217-.025.374.028.533.086-.146.623-.093 1.625-.774 1.64zm.965-2.93a11.09 11.09 0 01-.15.991c-1.061-.355-1.712.472-1.7 1.492.002.198.034.393.15.533.201.24.776.298 1.066.096a.778.778 0 00.151-.16c.028-.037.073-.134.08-.106-.014.108-.037.208-.04.33h.393c.075-1.149.309-2.13.482-3.176h-.432zm-11.07 2.76c-.231.26-.8.256-.844-.18-.02-.19.047-.39.08-.587.034-.199.058-.39.09-.565.228-.294.898-.33.966.16.059.426-.1.957-.292 1.172zm.342-1.8c-.366-.146-.812.028-1.005.193 0 .007-.005.008-.01.009l.01-.009v-.002c.003-.07.027-.12.03-.191H7.35a77.897 77.897 0 01-.533 3.207h.432c.063-.41.104-.842.191-1.225.099.403.744.326 1.016.17.561-.322.994-1.853.241-2.152zm2.051.767H9.733a.613.613 0 01.573-.533c.311-.013.534.121.442.533zm-.412-.81c-.313.025-.577.12-.764.33-.23.257-.417.825-.362 1.343.078.738.945.712 1.639.533.011-.13.041-.24.06-.363-.286.114-.782.272-1.076.075-.222-.149-.223-.525-.15-.852.466-.016.95-.013 1.417 0 .03-.232.114-.485.04-.715-.098-.302-.448-.38-.804-.351zm-3.8.043c-.012.001-.011.016-.01.031a33.158 33.158 0 01-.363 2.185h.433c.104-.76.223-1.504.372-2.216h-.433zm11.28.01c-.382-.202-.7.137-.824.341.035-.104.037-.244.07-.351h-.382a34.68 34.68 0 01-.372 2.216h.442c.003-.294.058-.511.101-.8.093-.614.228-1.29.905-1.086.022-.104.032-.222.06-.32zm-4.856 1.684c-.04-.11-.05-.29-.04-.426.022-.308.128-.683.291-.853.226-.234.671-.195 1.026-.064.011-.127.035-.24.05-.362-.582-.101-1.135-.038-1.428.287-.286.32-.474 1.052-.341 1.514.155.54.853.569 1.417.362.025-.108.038-.23.06-.341-.308.17-.898.258-1.035-.117zm-.241-1.694c-.384-.165-.685.113-.825.372.032-.115.045-.25.07-.372h-.381c-.094.767-.231 1.488-.362 2.216h.432c.06-.432.087-1.015.221-1.428.108-.33.389-.612.794-.458.006-.122.04-.215.05-.33zm-6.968-.896c-.062.425-.131.841-.2 1.258-.449.005-.906.023-1.338-.01.082-.408.14-.84.221-1.248h-.482c-.173 1.04-.33 2.095-.523 3.112h.492c.078-.522.15-1.05.252-1.545.42-.011.923-.03 1.327.01-.083.516-.184 1.013-.262 1.535h.493c.158-1.054.325-2.1.523-3.112H5.75zm1.227.47c.086-.064.197-.35.07-.47-.04-.037-.107-.048-.2-.032-.088.016-.138.047-.172.096-.054.08-.104.317-.02.405.082.086.267.04.322 0z" fill="#fff"/>
</svg>
